icons/line/thumb-up.svg

<svg width="24" height="24" viewBox="0 0 24 24" fill="none" xmlns="http://www.w3.org/2000/svg">
<path d="M8 20H6C4.89543 20 4 19.1046 4 18V12C4 10.8954 4.89543 10 6 10H8M8 20V10M8 20H16C18.2091 20 20 18.2091 20 16V14C20 11.7909 18.2091 10 16 10H15M8 10L13.6327 4.36734C13.8679 4.13214 14.1869 4 14.5195 4V4C15.2945 4 15.884 4.6959 15.7566 5.46036L15 10M13 10H15" stroke="currentColor" stroke-width="2" stroke-linecap="round" stroke-linejoin="round"/>
</svg>

<svg width="24" height="24" fill="none" xmlns="http://www.w3.org/2000/svg"><path d="M8 20H6a2 2 0 01-2-2v-6a2 2 0 012-2h2m0 10V10m0 10h8a4 4 0 004-4v-2a4 4 0 00-4-4h-1m-7 0l5.633-5.633c.235-.235.554-.367.887-.367v0c.774 0 1.364.696 1.237 1.46L15 10m-2 0h2" stroke="currentColor" stroke-width="2" stroke-linecap="round" stroke-linejoin="round"/></svg>
